resources/svg/solid/business-time.svg

<svg fill="currentColor" xmlns="http://www.w3.org/2000/svg" viewBox="0 0 640 512"><!--! Font Awesome Free 6.6.0 by @fontawesome - https://fontawesome.com License - https://fontawesome.com/license/free (Icons: CC BY 4.0, Fonts: SIL OFL 1.1, Code: MIT License) Copyright 2024 Fonticons, Inc. --><path d="M184 48l144 0c4.4 0 8 3.6 8 8l0 40L176 96l0-40c0-4.4 3.6-8 8-8zm-56 8l0 40L64 96C28.7 96 0 124.7 0 160l0 96 192 0 160 0 8.2 0c32.3-39.1 81.1-64 135.8-64c5.4 0 10.7 .2 16 .7l0-32.7c0-35.3-28.7-64-64-64l-64 0 0-40c0-30.9-25.1-56-56-56L184 0c-30.9 0-56 25.1-56 56zM320 352l-96 0c-17.7 0-32-14.3-32-32l0-32L0 288 0 416c0 35.3 28.7 64 64 64l296.2 0C335.1 449.6 320 410.5 320 368c0-5.4 .2-10.7 .7-16l-.7 0zm320 16a144 144 0 1 0 -288 0 144 144 0 1 0 288 0zM496 288c8.8 0 16 7.2 16 16l0 48 32 0c8.8 0 16 7.2 16 16s-7.2 16-16 16l-48 0c-8.8 0-16-7.2-16-16l0-64c0-8.8 7.2-16 16-16z"/></svg>

<svg fill="currentColor" xmlns="http://www.w3.org/2000/svg" viewBox="0 0 640 512"><!--! Font Awesome Free 6.5.2 by @fontawesome - https://fontawesome.com License - https://fontawesome.com/license/free (Icons: CC BY 4.0, Fonts: SIL OFL 1.1, Code: MIT License) Copyright 2024 Fonticons, Inc. --><path d="M184 48H328c4.4 0 8 3.6 8 8V96H176V56c0-4.4 3.6-8 8-8zm-56 8V96H64C28.7 96 0 124.7 0 160v96H192 352h8.2c32.3-39.1 81.1-64 135.8-64c5.4 0 10.7 .2 16 .7V160c0-35.3-28.7-64-64-64H384V56c0-30.9-25.1-56-56-56H184c-30.9 0-56 25.1-56 56zM320 352H224c-17.7 0-32-14.3-32-32V288H0V416c0 35.3 28.7 64 64 64H360.2C335.1 449.6 320 410.5 320 368c0-5.4 .2-10.7 .7-16l-.7 0zm320 16a144 144 0 1 0 -288 0 144 144 0 1 0 288 0zM496 288c8.8 0 16 7.2 16 16v48h32c8.8 0 16 7.2 16 16s-7.2 16-16 16H496c-8.8 0-16-7.2-16-16V304c0-8.8 7.2-16 16-16z"/></svg>
